X: 444
U:~=!turn!
M:C
L:1/8
K:A mix
e | A<Ac>A d>Bc>A | B<Bc>A d>BG>B | A<Ac>A d>Bc>A | d>Be>d c>BA>a |
e>ac>a e>ac>a | d>Bg>d B>AG>B | e>ac>a e>ac>a | d>Be>d c>BA>e |
a>ec>e a>ec>e | B<Bg>d B>AG>g | a>fg>e f>de>c | d>Ba>e c>BA :|


